X:1
T:Search Me, O God (Simpson)
T:Albert Benjamin Simpson, 1897
T:Search Me, O God (Simpson)
T:Public Domain
T:Public Domain
T:Public Domain
C:Albert Benjamin Simpson, 1897
Z:Public Domain
%%score ( 1 2 ) ( 3 4 )
L:1/8
M:4/4
K:Db
V:1 treble 
V:2 treble 
V:3 bass 
V:4 bass 
V:1
 [DF]4 D2 [CE]2 | [DF]6 z2 | [DG]2 [DF][EG] [FA]2 [EG]2 | [DF]6 z2 | [DB]4 [DA]2 [DA]2 | %5
w: 1.~Search me, O|search|me and know my heart;|Try|me and prove|
w: 2.~Thou art the|to-|day and yes- ter- day;|Oh,|make Thy life|
w: 3.~Take my poor|and|on- ly let me love|The|things that al-|
w: 4.~Help me to|my|trea- sures up on high;|Teach|me to seek|
w: 5.~Oh, let my|a-|bide the test- ing day|That|shall con- sume|
 [CA]6 [D=G]2 | [D=G]2 [DG]2 [DF]2 [DG]2 | [CA]6 z2 | [DF]4 D2 [CE]2 | [DF]4 [DF]4 | %10
w: me in|the hid- den part;|Cleanse|me and make|ho- ly,|
w: in me|the same al- way;|Take|from my heart|things that|
w: ways shall|a- bid- ing prove;|Bind|all my heart-|to the|
w: my fu-|ture in the sky;|Give|me my por-|yon- der|
w: the stub-|ble and the hay;|Oh,|build my house|on the|
 [FA]2 [FA]2 [D_c]2 [Dc]2 | [DB]6 [DB]2 | [Gd]2 [DB]2 [DA]2 [DB]2 | [DA]4 [DF]2 [A,D]2 | (B,4 C4) | %15
w: as Thou art, And|lead me|in the way ev-|er- last- ing.||
w: pass a- way; Lead,|lead me|in the way ev-|er- last- ing.|Lead *|
w: world a- bove, And|lead me|in the way ev-|er- last- ing.||
w: by and by, And|lead me|in the way ev-|er- last- ing.||
w: rock, I pray, And|lead me|in the way ev-|er- last- ing.||
 D6 z2 ||"^Refrain" [DF]4 (D2 F2) | [FA]4 (D2 F2) | [DB][DB][DA][DB] [Dd]2 [Dc][DB] | [DB]4 [DA]4 | %20
w: |||||
w: lead|lead me *|the way *|er- last- ing; Keep me from the|things that|
w: |||||
w: |||||
w: |||||
 [EB][DA][CG][DF] [DF]2 [DF]2 | [CE][CE][DE][DE] [CA]4 | [DF][DE][DF][CG] [DA]2 [FA]2 | %23
w: |||
w: wi- ther and de- cay; Give|to me the things that|can- not pass a- way, And|
w: |||
w: |||
w: |||
 [Af][Ad][Ac][=Gd] [Ae]3 [_Gc] | [Fd][Ad][Ac][GB] [FA]2 [Gc][Fd] | [Ge]4 [Fd]4 |] %26
w: |||
w: lead me in the way ev-|er- last- ing. * * * *||
w: |||
w: |||
w: |||
V:2
 x4 D2 x2 | x8 | x8 | x8 | x8 | x8 | x8 | x8 | x4 D2 x2 | x8 | x8 | x8 | x8 | x8 | E8 | D6 x2 || %16
w: God,||||||||me||||||||
w: same||||||||the||||||me,|me,|
w: heart||||||||strings||||||||
w: lay||||||||tion||||||||
w: work||||||||up-||||||||
 x4 A4 | x4 d4 | x8 | x8 | x8 | x8 | x8 | x8 | x8 | x8 |] %26
w: ||||||||||
w: in|ev-|||||||||
w: ||||||||||
w: ||||||||||
w: ||||||||||
V:3
 [D,A,]4 [D,F,]2 [D,G,]2 | [D,A,]6 z2 | [D,B,]2 [D,A,][D,B,] [A,,D]2 [A,,C]2 | [D,A,]6 z2 | %4
w: ~ ~ ~|~|~ ~ ~ ~ ~|~|
 G,4 [F,A,]2 [F,A,]2 | [E,A,]6 [E,B,]2 | [E,B,]2 [E,B,]2 [E,A,]2 [E,B,]2 | [A,,A,]6 z2 | %8
w: ~ ~ ~|~ ~|~ ~ ~ ~|~|
 [D,A,]4 [D,F,]2 [D,G,]2 | [D,A,]4 [D,A,]4 | [D,_C]2 [D,C]2 [F,A,]2 [F,A,]2 | G,6 [G,,G,]2 | %12
w: ~ ~ ~|~ ~|~ ~ ~ ~|~ ~|
 [B,,G,]2 [D,G,]2 [D,F,]2 [D,G,]2 | [D,F,]4 [D,A,]2 [D,F,]2 | (G,,4 A,,4) | [D,F,]6 z2 || %16
w: ~ ~ ~ ~|~ ~ ~|Lead *|Sav-|
 D,2 E,2 F,2 D,2 | D2 A,2 F,2 A,2 | [G,,G,][G,,G,][G,,G,][G,,A,] [G,B,]2 [G,A,]G, | %19
w: ior, Sav- ior lead|||
 [D,G,]4 [D,F,]4 | G,[F,A,][E,A,][D,A,] [D,A,]2 [D,A,]2 | [E,A,][E,A,][E,=G,][B,,G,] [A,,A,]4 | %22
w: |||
 [D,A,][D,G,][D,A,][E,A,] [F,A,]2 [D,A,]2 | [D,D][F,D][E,E][E,D] [A,C]3 [A,,A,] | %24
w: ||
 [D,A,][F,D][G,D][G,D] [A,D]2 [A,E][A,D] | (A,2 A,,2) [D,A,]4 |] %26
w: ||
V:4
 x8 | x8 | x8 | x8 | G,4 x4 | x8 | x8 | x8 | x8 | x8 | x8 | G,6 x2 | x8 | x8 | G,8 | x8 || %16
w: ||||~|||||||~|||me,||
 A,4 A,4 | D,4 D,4 | x7 G, | x8 | G, x7 | x8 | x8 | x8 | x8 | C4 x4 |] %26
w: me, *||||||||||

